packages/kaspersky-hexa-ui-icons/src/iconsSVGs/28x20/FlagPg.svg

<svg width="28" height="20" viewBox="0 0 28 20" fill="none" xmlns="http://www.w3.org/2000/svg">
<g clip-path="url(#clip0_5138_1620)">
<rect width="28" height="20" rx="2" fill="white"/>
<mask id="mask0_5138_1620" style="mask-type:luminance" maskUnits="userSpaceOnUse" x="0" y="0" width="28" height="20">
<rect width="28" height="20" rx="2" fill="white"/>
</mask>
<g mask="url(#mask0_5138_1620)">
<rect width="28" height="20" fill="#262626"/>
<path fill-rule="evenodd" clip-rule="evenodd" d="M0 0H28V20L0 0Z" fill="#E8283F"/>
<path fill-rule="evenodd" clip-rule="evenodd" d="M6.66666 16.6667L5.72385 16.9428L5.99999 16L5.72385 15.0572L6.66666 15.3333L7.60947 15.0572L7.33333 16L7.60947 16.9428L6.66666 16.6667Z" fill="white"/>
<path fill-rule="evenodd" clip-rule="evenodd" d="M6.66666 8.66667L5.72385 8.94281L5.99999 8.00001L5.72385 7.0572L6.66666 7.33334L7.60947 7.0572L7.33333 8.00001L7.60947 8.94281L6.66666 8.66667Z" fill="white"/>
<path fill-rule="evenodd" clip-rule="evenodd" d="M3.33333 12L2.39052 12.2761L2.66667 11.3333L2.39052 10.3905L3.33333 10.6667L4.27614 10.3905L4 11.3333L4.27614 12.2761L3.33333 12Z" fill="white"/>
<path fill-rule="evenodd" clip-rule="evenodd" d="M9.33333 11.3333L8.39052 11.6095L8.66667 10.6667L8.39052 9.72385L9.33333 9.99999L10.2761 9.72385L10 10.6667L10.2761 11.6095L9.33333 11.3333Z" fill="white"/>
<path fill-rule="evenodd" clip-rule="evenodd" d="M18.8612 9.26557C18.7016 9.1698 18.5722 8.9442 18.5722 8.76372L18.5722 7.535C18.5722 7.3536 18.4417 7.25005 18.2442 7.31588L17.486 7.56862C17.3049 7.629 17.0275 7.63445 16.83 7.56862L16.0718 7.31588C15.8906 7.2555 15.8705 7.13051 16.0328 7.03314L17.8118 5.96574C17.9714 5.86997 18.0573 5.66182 17.9915 5.46433L17.7387 4.70612C17.6784 4.52497 17.7599 4.42162 17.9574 4.48745L18.7156 4.74019C18.8968 4.80057 19.1197 4.7228 19.217 4.56051L20.2844 2.78152C20.3802 2.6219 20.5013 2.62301 20.5672 2.82051L20.8199 3.57871C20.8803 3.75986 20.8857 4.03723 20.8199 4.23472L20.5672 4.99292C20.5068 5.17408 20.6058 5.32093 20.7863 5.32093H22.015C22.1964 5.32093 22.4195 5.44765 22.5169 5.60995L23.5843 7.38893C23.68 7.54855 23.603 7.70888 23.4299 7.7435L21.7284 8.08381C21.5474 8.12001 21.3697 8.30401 21.3351 8.47709L20.9948 10.1786C20.9586 10.3596 20.8025 10.4303 20.6402 10.333L18.8612 9.26557Z" fill="#FFD84E"/>
</g>
</g>
<defs>
<clipPath id="clip0_5138_1620">
<rect width="28" height="20" fill="white"/>
</clipPath>
</defs>
</svg>

<svg xmlns="http://www.w3.org/2000/svg" width="28" height="20" fill="none" viewBox="0 0 28 20"><g clip-path="url(#a)"><rect width="28" height="20" fill="#fff" rx="2"/><mask id="b" width="28" height="20" x="0" y="0" maskUnits="userSpaceOnUse" style="mask-type:luminance"><rect width="28" height="20" fill="#fff" rx="2"/></mask><g mask="url(#b)"><path fill="#262626" d="M0 0h28v20H0z"/><path fill="#e8283f" fill-rule="evenodd" d="M0 0h28v20z" clip-rule="evenodd"/><path fill="#fff" fill-rule="evenodd" d="m6.667 16.667-.943.276L6 16l-.276-.943.943.276.943-.276-.277.943.276.943zm0-8-.943.276L6 8l-.276-.943.943.276.943-.276L7.333 8l.276.943zM3.333 12l-.943.276.276-.943-.276-.943.943.276.943-.276-.276.943.276.943zm6-.667-.943.276.276-.943-.276-.943.943.276.943-.276-.276.943.276.943z" clip-rule="evenodd"/><path fill="#ffd84e" fill-rule="evenodd" d="M18.8612 9.2656c-.1596-.0958-.289-.3214-.289-.5019V7.535c0-.1814-.1305-.285-.328-.2191l-.7582.2527c-.1811.0604-.4585.0659-.656 0l-.7582-.2527c-.1812-.0604-.2013-.1854-.039-.2828l1.779-1.0674c.1596-.0957.2455-.3039.1797-.5014l-.2528-.7582c-.0603-.1811.0212-.2845.2187-.2187l.7582.2528c.1812.0604.4041-.0174.5014-.1797l1.0674-1.779c.0958-.1596.2169-.1585.2828.039l.2527.7582c.0604.1812.0658.4585 0 .656l-.2527.7582c-.0604.1812.0386.328.2191.328h1.2287c.1814 0 .4045.1268.5019.289l1.0674 1.779c.0957.1597.0187.32-.1544.3546l-1.7015.3403c-.181.0362-.3587.2202-.3933.3933l-.3403 1.7015c-.0362.181-.1923.2517-.3546.1544z" clip-rule="evenodd"/></g></g><defs><clipPath id="a"><path fill="#fff" d="M0 0h28v20H0z"/></clipPath></defs></svg>
